images/install/cloud/azure.svg

<svg width="140" height="41" viewBox="0 0 140 41" fill="none" xmlns="http://www.w3.org/2000/svg">
<path d="M24.09 38.1791C30.7801 36.9973 36.3057 36.0193 36.3691 36.0059L36.4845 35.9814L30.1684 28.4686C26.6946 24.3365 23.8523 20.9397 23.8523 20.9202C23.8523 20.8831 30.3742 2.92317 30.4109 2.85927C30.4232 2.83791 34.8615 10.5006 41.1698 21.4342C47.0757 31.6704 51.9448 40.1101 51.9901 40.1892L52.0724 40.333L31.9993 40.3304L11.9262 40.3279L24.09 38.1791V38.1791ZM101.068 36.3622C98.0124 36.1663 96.2353 34.4264 95.7644 31.1697C95.6391 30.3034 95.6386 30.2809 95.6258 24.6567L95.6134 19.2135H96.9657H98.318L98.3287 24.4785C98.3382 29.2237 98.3443 29.7801 98.3896 30.1139C98.5738 31.4687 98.9403 32.3797 99.5644 33.0336C100.064 33.557 100.648 33.8634 101.458 34.026C101.84 34.1027 102.926 34.1029 103.274 34.0263C104.095 33.8458 104.752 33.4887 105.332 32.9088C105.994 32.2478 106.483 31.31 106.719 30.2495L106.799 29.8921L106.808 24.5825L106.817 19.2729H108.198H109.578V27.6198V35.9666H108.212H106.845V34.6423C106.845 33.7425 106.836 33.3213 106.815 33.3282C106.798 33.3339 106.728 33.4412 106.659 33.5668C106.188 34.4255 105.403 35.2108 104.544 35.684C103.513 36.2511 102.48 36.4527 101.068 36.3622L101.068 36.3622ZM132.082 36.3487C131.003 36.2676 129.867 35.8968 128.939 35.3226C126.983 34.1123 125.825 32.1175 125.486 29.3722C125.369 28.4223 125.355 27.1462 125.453 26.339C125.671 24.5354 126.38 22.7647 127.389 21.5007C127.648 21.1766 128.235 20.5897 128.559 20.331C129.434 19.6323 130.458 19.1438 131.544 18.906C132.177 18.7675 133.292 18.7025 133.965 18.7648C135.655 18.9215 137.204 19.7171 138.257 20.9694C139.326 22.2417 139.914 24.0196 139.989 26.2088C140.001 26.5518 140.004 27.1533 139.995 27.5454L139.98 28.2583L134.062 28.2658L128.143 28.2733V28.5374C128.143 29.3415 128.339 30.2572 128.677 31.0364C128.968 31.7083 129.47 32.4419 129.88 32.797C130.722 33.525 131.753 33.9608 132.881 34.0656C133.299 34.1045 134.365 34.0636 134.841 33.9903C136.201 33.7814 137.494 33.2481 138.538 32.4655C138.66 32.3734 138.778 32.2874 138.799 32.2743C138.829 32.2552 138.836 32.4958 138.836 33.507L138.835 34.7635L138.555 34.9365C137.374 35.6668 136.021 36.1358 134.589 36.3114C134.161 36.3637 132.593 36.3871 132.082 36.3487L132.082 36.3487ZM137.233 25.7515C137.233 24.4047 136.665 22.9086 135.862 22.1382C135.289 21.5884 134.596 21.2524 133.772 21.1248C133.382 21.0645 132.561 21.0877 132.15 21.1707C131.282 21.3462 130.563 21.7281 129.937 22.3472C129.277 22.9989 128.783 23.7903 128.472 24.6921C128.36 25.0164 128.229 25.5488 128.189 25.8449L128.169 25.986H132.701H137.233V25.7515ZM56.9489 35.9294C56.9558 35.909 58.9656 30.6291 61.4151 24.1964L65.8687 12.5006L67.2996 12.5005L68.7306 12.5004L68.8493 12.8048C69.2122 13.7353 77.7651 35.9412 77.7651 35.9527C77.7651 35.9603 77.0801 35.9664 76.2428 35.9663L74.7205 35.966L73.4878 32.684L72.255 29.402L67.2915 29.4019L62.3281 29.4019L62.2849 29.5133C62.2612 29.5745 61.7345 31.0513 61.1145 32.795L59.9873 35.9654L58.4618 35.9659C57.2543 35.9664 56.9389 35.9587 56.9489 35.9293V35.9294ZM71.3491 26.8973C71.3491 26.8921 70.5195 24.6432 69.5056 21.8996C67.6087 16.767 67.5026 16.4581 67.3527 15.6341C67.2824 15.2477 67.2469 15.237 67.2052 15.5896C67.1754 15.8416 67.0461 16.4055 66.9464 16.7183C66.8969 16.8735 66.0427 19.218 65.0482 21.9282C64.0536 24.6385 63.2399 26.8674 63.2399 26.8814C63.2399 26.8954 65.0644 26.9068 67.2945 26.9068C69.5245 26.9068 71.3491 26.9026 71.3491 26.8973V26.8973ZM78.686 35.5391V35.1116L83.6311 28.3136L88.5763 21.5155L84.0989 21.5007L79.6216 21.4858L79.6139 20.3496L79.6061 19.2135H86.0819H92.5577V19.5972V19.981L87.612 26.8161C84.8919 30.5754 82.6663 33.6575 82.6663 33.6653C82.6663 33.673 84.8651 33.6793 87.5526 33.6793H92.4389V34.8229V35.9665H85.5624H78.686V35.5391ZM114.974 35.9467C114.963 35.9358 114.955 32.1664 114.955 27.5702V19.2135H116.306H117.658V20.9363C117.658 21.8839 117.669 22.6591 117.683 22.6591C117.697 22.6591 117.763 22.504 117.829 22.3144C118.133 21.4458 118.66 20.6341 119.339 19.9889C119.951 19.4078 120.65 19.0602 121.475 18.9272C121.706 18.8899 121.902 18.8827 122.366 18.8948C122.948 18.91 123.252 18.9525 123.606 19.0682L123.717 19.1046V20.5075V21.9104L123.398 21.7505C122.834 21.4682 122.277 21.3564 121.608 21.3912C121.173 21.4139 120.887 21.4698 120.539 21.6004C119.823 21.8692 119.242 22.3437 118.836 22.9914C118.248 23.929 117.829 25.1341 117.705 26.2418C117.683 26.4406 117.67 28.0595 117.665 31.251L117.657 35.9665H116.326C115.593 35.9665 114.985 35.9576 114.974 35.9467ZM0 35.888C0 35.8775 2.97612 30.7112 6.6136 24.4074L13.2272 12.9459L20.9346 6.47786C25.1736 2.92043 28.6534 0.00546233 28.6673 0.000146127C28.6813 -0.00516902 28.6255 0.135182 28.5434 0.312038C28.4613 0.488895 24.6952 8.5668 20.1743 18.2629L11.9544 35.8923L5.97721 35.8998C2.68975 35.9039 0 35.8986 0 35.888V35.888Z" fill="#0089D6"/>
</svg>

<svg xmlns="http://www.w3.org/2000/svg" fill="none" viewBox="0 0 140 41"><defs/><path fill="#0089D6" d="M24.09 38.18c6.69-1.183 12.216-2.16 12.28-2.174l.114-.025-6.316-7.512c-3.473-4.133-6.316-7.53-6.316-7.549 0-.037 6.522-17.997 6.559-18.06.012-.022 4.45 7.64 10.759 18.574L51.99 40.19l.082.144L32 40.33l-20.073-.002 12.164-2.149zm76.978-1.818c-3.056-.196-4.833-1.936-5.304-5.192-.125-.867-.125-.89-.138-6.513l-.013-5.444h2.705l.01 5.265c.01 4.746.016 5.302.062 5.636.184 1.355.55 2.266 1.174 2.92.5.523 1.084.83 1.894.992.382.077 1.468.077 1.816 0a4.01 4.01 0 002.058-1.117c.662-.661 1.151-1.599 1.387-2.66l.08-.357.009-5.31.009-5.31h2.761v16.695h-2.733v-1.325c0-.9-.009-1.32-.03-1.314-.017.006-.087.113-.156.239a5.56 5.56 0 01-2.115 2.117c-1.031.567-2.064.769-3.476.678zm31.014-.013a7.164 7.164 0 01-3.143-1.026c-1.956-1.21-3.114-3.206-3.453-5.95-.117-.95-.131-2.227-.033-3.034.218-1.804.927-3.574 1.936-4.838a9.912 9.912 0 011.17-1.17 7.29 7.29 0 012.985-1.425c.633-.139 1.748-.203 2.421-.141 1.69.157 3.239.952 4.292 2.204 1.069 1.273 1.657 3.05 1.732 5.24.012.343.015.944.006 1.336l-.015.713-5.918.008-5.919.007v.264c0 .805.196 1.72.534 2.5.291.671.793 1.405 1.203 1.76a5.291 5.291 0 003.001 1.269c.418.038 1.484-.002 1.96-.076 1.36-.209 2.653-.742 3.697-1.525.122-.092.24-.178.261-.19.03-.02.037.22.037 1.232l-.001 1.257-.28.172a9.8 9.8 0 01-3.966 1.375c-.428.053-1.996.076-2.507.038zm5.151-10.597c0-1.347-.568-2.843-1.371-3.614-.573-.55-1.266-.886-2.09-1.013-.39-.06-1.211-.037-1.622.046a4.239 4.239 0 00-2.213 1.176 6.027 6.027 0 00-1.465 2.345 7.438 7.438 0 00-.283 1.153l-.02.141h9.064v-.235zM56.949 35.928l4.466-11.733 4.454-11.695h2.862l.118.304c.363.93 8.916 23.136 8.916 23.148 0 .007-.685.013-1.522.013H74.72l-1.233-3.282-1.233-3.282h-9.927l-.043.111c-.024.061-.55 1.538-1.17 3.282l-1.128 3.17h-1.525c-1.208.001-1.523-.006-1.513-.036zm14.4-9.032c0-.005-.83-2.254-1.843-4.997-1.897-5.133-2.003-5.442-2.153-6.266-.07-.386-.106-.397-.148-.044-.03.252-.159.816-.259 1.128-.05.155-.903 2.5-1.898 5.21-.994 2.71-1.808 4.94-1.808 4.953 0 .014 1.824.026 4.054.026 2.23 0 4.055-.004 4.055-.01zm7.337 8.642v-.427l4.945-6.798 4.945-6.799-4.477-.014-4.477-.015-.008-1.136-.008-1.137h12.952v.768l-4.946 6.835c-2.72 3.76-4.946 6.841-4.946 6.85 0 .007 2.2.013 4.887.013h4.886v2.288H78.686v-.428zm36.288.408c-.011-.011-.019-3.78-.019-8.377v-8.357H117.658v1.723c0 .948.011 1.723.025 1.723.014 0 .08-.155.146-.345a5.957 5.957 0 011.51-2.325 3.916 3.916 0 012.136-1.062c.231-.037.427-.044.891-.032.582.015.886.058 1.24.173l.111.037V21.91l-.319-.16c-.564-.282-1.121-.394-1.79-.359a3.384 3.384 0 00-2.772 1.6 8.083 8.083 0 00-1.131 3.25c-.022.2-.035 1.819-.04 5.01l-.008 4.716h-1.331c-.733 0-1.341-.01-1.352-.02zM0 35.888c0-.01 2.976-5.177 6.614-11.48l6.613-11.462 7.708-6.468C25.174 2.92 28.653.005 28.667 0c.014-.005-.042.135-.124.312l-8.369 17.95-8.22 17.63-5.977.008C2.69 35.904 0 35.899 0 35.888z"/></svg>
